X: 31152
T: Paddy Fahey's
R: reel
M: 4/4
K: Dmajor
A|:d3c dAFA|GBEG FGAB|=c3A d=cde|faed ^cABc|
d3c dAFA|G2 EG FGAB|=c2 AB =cAGF|1 EAB^c d2 A:|2 EABc d3A||
|:d3f a^gba|^gafd A=GFA|G2 EG FGAB|cdef gece|
dcdf a^gba|^gafd A=GFA|GFEG FEDF|1 EABc d3A:|2 EABc d3z||

